X:1
T:Title
%%score { ( 1 3 ) | 2 }
L:1/8
M:3/4
K:F
V:1 treble nm="Grand Piano"
V:3 treble 
V:2 bass 
V:1
 z2 z2[Q:1/4=100] A>G | F3 A [EG][Ed] | c2 A2 F>G | A3 A [GB][FA] |[M:2/4] [EG]4 | %5
[M:1/4] [EA]>[EG] |[M:3/4] F3 A [EG][Ed] | c2 A2 G>c | e3 d [Ec][D=B] |[M:2/4] [Ec]4 |[M:1/4] c>B | %11
[M:3/4] [FA]4 z2 | B2 B2 [Ec]>[EB] | A3 F EF |[M:2/4] [CEG]4 |[M:1/4] A>B |[M:3/4] [Ac]4 z2 | %17
 c2 A2 f>[Fd] | %18
[M:13/16] [Fc]-<[Fc] z/ z [A,F][CFA]>[B,EG][Q:1/4=97][Q:1/4=94][Q:1/4=91][Q:1/4=88][Q:1/4=84][Q:1/4=81][Q:1/4=78] | %19
[M:2/4] [A,F]4 |] %20
V:2
 z2 z2 [F,CF]>[F,B,F] | [F,A,]3 [F,CF] [C,C][C,B,] | [F,A,F]2 [F,CF]2 [A,C]>[G,CE] | %3
 [F,CF]3 [F,CF] [E,C][F,C] |[M:2/4] [C,C]4 |[M:1/4] [C,C]>[C,B,] | %6
[M:3/4] [F,A,]3 [F,CF] [C,C][C,B,] | [F,A,F]2 [F,CF]2 [G,CE]>[G,CE] | %8
 [G,CG]3 [G,F][K:bass] [G,,G,][G,,G,] |[M:2/4] [C,G,]4 |[M:1/4][K:treble] A>G | %11
[M:3/4][K:bass] F,>F, F,[F,CF] [B,CE][K:treble][A,CF] | [G,CE]2[K:bass] [G,CE]2 [C,C]>[C,C] | %13
 [F,CF]3 [A,C] [G,B,C][F,A,C] |[M:2/4] C,4 |[M:1/4][K:treble] F>G | %16
[M:3/4][K:bass] F,>F, F,[F,A,F] [F,B,F][F,A,F] | [F,A,F]2 [F,CF]2 [B,,DF]>[D,B,] | %18
[M:13/16] [F,A,]-<[F,A,] z/ z D,C,>C, |[M:2/4] F,4 |] %20
V:3
 x6 | x6 | x6 | x6 |[M:2/4] x4 |[M:1/4] x2 |[M:3/4] x6 | x6 | x6 |[M:2/4] x4 |[M:1/4] x2 | %11
[M:3/4] C>C CA GA | x6 | x6 |[M:2/4] x4 |[M:1/4] x2 |[M:3/4] C>C Cc dc | x6 |[M:13/16] x13/2 | %19
[M:2/4] x4 |] %20

